svg/color/eql.svg

<svg xmlns="http://www.w3.org/2000/svg" width="32" height="32" viewBox="0 0 32 32"><g fill="none"><circle cx="16" cy="16" r="16" fill="#C9A35E"/><path fill="#FFF" d="M10.0269027,19.379227 C9.96966876,19.5032338 9.83612294,19.5890847 9.69303812,19.5890847 L5.61989042,19.5890847 C5.49588358,19.5890847 5.37187674,19.5223118 5.30510382,19.4078439 C5.23833091,19.2933761 5.22879192,19.1502913 5.29556484,19.0358234 L12.6978192,5.69077975 C12.831365,5.45230506 13.2129246,5.45230506 13.3464704,5.69077975 L19.1175579,16.0691983 C19.1747918,16.1836661 19.1747918,16.3267509 19.1080189,16.4412188 C19.050785,16.5556866 18.9267781,16.6224595 18.7932323,16.6224595 L17.1048315,16.6224595 C16.9712857,16.6224595 16.8472788,16.5461476 16.7805059,16.4316798 L13.0316838,9.61130366 L8.83452924,17.3665006 L10.4370792,17.3665006 C10.561086,17.3665006 10.6850928,17.4332735 10.7518657,17.5382024 C10.8186387,17.6526702 10.8281776,17.786216 10.7709437,17.9006839 L10.0269027,19.379227 Z M26.701053,19.0358234 C26.7678259,19.1502913 26.7678259,19.2933761 26.691514,19.4078439 C26.6342801,19.5223118 26.5102733,19.5890847 26.3767274,19.5890847 L15.2638069,19.5890847 C15.0539492,19.5890847 14.8917864,19.4173829 14.8917864,19.2170642 L14.8917864,17.7385211 C14.8917864,17.5286634 15.0634881,17.3665006 15.2638069,17.3665006 L23.1716276,17.3665006 L18.9840121,9.63992062 L18.1922761,11.2233926 C18.0587303,11.4714062 17.6485538,11.4714062 17.5245469,11.2233926 L16.7805059,9.74484948 C16.732811,9.63992062 16.732811,9.51591378 16.7805059,9.41098492 L18.6310695,5.70031874 C18.6978424,5.58585089 18.8218493,5.5 18.9553951,5.5 C19.0794019,5.5 19.2224867,5.56677291 19.2892597,5.69077975 L26.701053,19.0358234 Z M21.8838643,20.5143665 L23.7248889,23.8530122 C23.7916618,23.96748 23.7916618,24.1105648 23.7248889,24.2250327 C23.667655,24.3395005 23.5436481,24.4062734 23.4101023,24.4062734 L8.58651556,24.4062734 C8.45296973,24.4062734 8.3289629,24.3299615 8.26218998,24.2154937 C8.19541707,24.1010258 8.20495606,23.957941 8.27172897,23.8434732 L11.2383541,19.0262844 L14.1954403,13.8466142 C14.2622132,13.7226073 14.395759,13.6462954 14.5293048,13.6558344 C14.6723897,13.6558344 14.7963965,13.7321463 14.8536304,13.8561531 L15.5976715,15.3346962 C15.6549054,15.4491641 15.6549054,15.5827099 15.5881325,15.6876388 L11.8297713,22.1741503 L20.1668465,22.1741503 L19.3941885,20.886387 C19.3178766,20.7719192 19.3178766,20.6288343 19.3846495,20.5143665 C19.4514224,20.3998986 19.5754293,20.3235867 19.7089751,20.3235867 L21.5595387,20.3235867 C21.6930845,20.3235867 21.8170914,20.3998986 21.8838643,20.5143665 Z"/></g></svg>

<svg xmlns="http://www.w3.org/2000/svg" width="32" height="32" viewBox="0 0 32 32"><g fill="none"><circle cx="16" cy="16" r="16" fill="#C9A35E"/><path fill="#FFF" d="M10.027 19.38a.372.372 0 0 1-.334.21H5.62a.368.368 0 0 1-.315-.182.37.37 0 0 1-.01-.372L12.699 5.69c.133-.239.515-.239.648 0l5.772 10.378a.396.396 0 0 1-.01.372.346.346 0 0 1-.315.181h-1.688a.381.381 0 0 1-.324-.19l-3.75-6.82-4.196 7.755h1.602a.38.38 0 0 1 .315.171.378.378 0 0 1 .019.363l-.744 1.478zm16.674-.344a.35.35 0 0 1-.01.372.346.346 0 0 1-.314.181H15.264a.372.372 0 0 1-.372-.372V17.74c0-.21.171-.372.372-.372h7.908L18.984 9.64l-.792 1.583c-.133.248-.543.248-.667 0l-.744-1.478a.407.407 0 0 1 0-.334l1.85-3.71a.39.39 0 0 1 .324-.201.39.39 0 0 1 .334.19l7.412 13.346zm-4.817 1.478l1.84 3.339a.37.37 0 0 1 0 .372.346.346 0 0 1-.314.181H8.587a.381.381 0 0 1-.325-.19.37.37 0 0 1 .01-.373l2.966-4.817 2.957-5.18c.067-.123.2-.2.334-.19a.35.35 0 0 1 .325.2l.744 1.479a.358.358 0 0 1-.01.353l-3.758 6.486h8.337l-.773-1.288a.35.35 0 0 1-.01-.372.381.381 0 0 1 .325-.19h1.85c.134 0 .258.076.325.19z"/></g></svg>
